6/img/icon-gift-tablet.svg

<svg width="67" height="75" viewBox="0 0 67 75" fill="none" xmlns="http://www.w3.org/2000/svg">
<path d="M64.016 22.1167H63.9104H38.2583C52.615 15.3189 53.7762 11.0202 53.2484 8.62098C52.0872 4.72221 47.3368 1.72316 42.9031 3.32266C37.0971 5.42199 35.5136 13.6194 33.9302 19.5175C31.9245 13.5194 30.0243 5.92183 25.485 2.02307C24.2183 0.923414 22.3181 -0.176239 19.4679 0.0236982C15.2453 0.423572 9.22814 5.32202 11.7617 10.8203C14.0841 16.1186 21.7903 19.5175 26.9629 22.2167H3.42211C1.73308 22.2167 0.466309 23.5163 0.466309 25.0158V36.2123C0.466309 37.8118 1.83864 39.0114 3.42211 39.0114H3.7388V75H63.9104V39.0114H64.016C65.705 39.0114 66.9718 37.7118 66.9718 36.2123V25.0158C66.9718 23.4163 65.5994 22.1167 64.016 22.1167ZM44.5922 5.82187C46.809 5.52196 49.7648 7.12146 50.0815 9.02085C50.5038 11.72 46.5979 14.2192 44.8033 15.3189C42.1642 17.0183 39.6306 17.918 37.2027 19.3176C38.0472 15.6188 39.8418 6.42168 44.5922 5.82187ZM20.7346 15.6188C18.4122 14.1192 13.9785 11.2202 14.0841 7.9212C14.1897 4.32234 20.1013 1.42326 23.2682 4.1224C27.2796 7.42136 29.1798 15.1189 30.6577 20.5172C27.2796 18.9177 24.1127 17.7181 20.7346 15.6188ZM26.9629 72.0009H6.80016V39.0114H26.9629V72.0009ZM26.9629 36.0123H3.63324V25.1158H26.9629V36.0123ZM37.5194 72.0009H30.0243V25.1158H37.5194V72.0009ZM60.7435 72.0009H40.6863V39.0114H60.8491V72.0009H60.7435ZM63.8049 36.0123H40.6863V25.1158H63.8049V36.0123Z" fill="#81B3D2"/>
</svg>

<svg width="67" height="75" fill="none" xmlns="http://www.w3.org/2000/svg"><path d="M64.016 22.117H38.258C52.615 15.319 53.776 11.02 53.248 8.62c-1.16-3.899-5.911-6.898-10.345-5.298-5.806 2.099-7.39 10.296-8.973 16.194-2.006-5.998-3.906-13.595-8.445-17.494-1.267-1.1-3.167-2.2-6.017-2-4.223.4-10.24 5.299-7.706 10.797 2.322 5.299 10.028 8.697 15.2 11.397H3.423c-1.689 0-2.956 1.3-2.956 2.799v11.196c0 1.6 1.373 2.8 2.956 2.8h.317V75H63.91V39.011h.106c1.689 0 2.956-1.3 2.956-2.799V25.016c0-1.6-1.373-2.9-2.956-2.9ZM44.592 5.822c2.217-.3 5.173 1.3 5.49 3.199.422 2.699-3.484 5.198-5.279 6.298-2.639 1.7-5.172 2.599-7.6 3.999.844-3.7 2.639-12.896 7.39-13.496Zm-23.857 9.797c-2.323-1.5-6.756-4.399-6.65-7.698.105-3.599 6.016-6.498 9.183-3.799 4.012 3.3 5.912 10.997 7.39 16.395-3.378-1.6-6.545-2.799-9.923-4.898ZM26.963 72H6.8V39.01h20.163v32.99Zm0-35.989H3.633V25.116h23.33v10.896Zm10.556 35.989h-7.495V25.116h7.495V72Zm23.224 0H40.686V39.01H60.85v32.99h-.105Zm3.062-35.989H40.686V25.116h23.119v10.896Z" fill="#81B3D2"/></svg>
